Newaita-dark/actions/24/list-remove.svg

<?xml version="1.0" encoding="UTF-8"?>
<svg xmlns="http://www.w3.org/2000/svg" xmlns:xlink="http://www.w3.org/1999/xlink" width="24pt" height="24pt" viewBox="0 0 24 24" version="1.1">
<g id="surface1">
<path style=" stroke:none;fill-rule:nonzero;fill:rgb(93.725491%,32.549021%,31.37255%);fill-opacity:1;" d="M 4.714844 18.234375 L 18.046875 4.902344 C 18.335938 4.613281 18.808594 4.613281 19.097656 4.902344 C 19.390625 5.195312 19.390625 5.664062 19.097656 5.957031 L 5.769531 19.285156 C 5.476562 19.578125 5.007812 19.578125 4.714844 19.285156 C 4.425781 18.996094 4.425781 18.523438 4.714844 18.234375 Z M 4.714844 18.234375 "/>
<path style=" stroke:none;fill-rule:nonzero;fill:rgb(93.725491%,32.549021%,31.37255%);fill-opacity:1;" d="M 11.90625 1.179688 C 5.859375 1.179688 0.992188 6.046875 0.992188 12.09375 C 0.992188 18.140625 5.859375 23.011719 11.90625 23.011719 C 17.953125 23.011719 22.824219 18.140625 22.824219 12.09375 C 22.824219 6.046875 17.953125 1.179688 11.90625 1.179688 Z M 11.90625 2.667969 C 17.128906 2.667969 21.335938 6.871094 21.335938 12.09375 C 21.335938 17.316406 17.128906 21.523438 11.90625 21.523438 C 6.683594 21.523438 2.480469 17.316406 2.480469 12.09375 C 2.480469 6.871094 6.683594 2.667969 11.90625 2.667969 Z M 11.90625 2.667969 "/>
</g>
</svg>

<svg xmlns="http://www.w3.org/2000/svg" width="32" height="32" viewBox="0 0 24 24"><g fill="#ef5350"><path d="M4.715 18.234L18.047 4.902a.745.745 0 0 1 1.05 1.055L5.77 19.285a.745.745 0 0 1-1.055-1.05zm0 0"/><path d="M11.906 1.18A10.89 10.89 0 0 0 .992 12.094a10.893 10.893 0 0 0 10.914 10.918 10.896 10.896 0 0 0 10.918-10.918A10.893 10.893 0 0 0 11.906 1.18zm0 1.488a9.408 9.408 0 0 1 9.43 9.426 9.41 9.41 0 0 1-9.43 9.43 9.408 9.408 0 0 1-9.426-9.43 9.404 9.404 0 0 1 9.426-9.426zm0 0"/></g></svg>
